X:8
T:The Death of Parcy Reed
Z:Jack Campin, http://www.campin.me.uk/
S:Northumbrian Minstrelsy
M:C
L:1/8
K:G
 G2  | B2   A2 (GA) B2 |(AB) (AG) E2
(D>E)| G3    A  G2 (AB)| c2   e2  d3
   d |(ed) (eg) d2 (AB)|(cB) (AG) E2
(DB,)| D2   D2  d3   c | B2   A2  G2|]

